X:175
T:Ferry, The
R:Jig
Z: John Chambers <jc@trillian.mit.edu>
M:6/8
L:1/8
K:A
e |\
"A" cBc Ace | "D" f3 "E7" efg | "A" a2c "F#m" cBA | "Bm" cBB "E7" Bed |
"A" cBc Ace | "D" f3 "E7" efg | "A" a2c "E7"  BAB | "A"  A3-      A2 :|
|: e |\
"A" cea aga | "D" fdf     agf | "A" e2c "F#m" cBA | "Bm" cBB "E7" Bed |
"A" cBc Ace | "D" f3 "E7" efg | "A" a2c "E7"  BAB | "A"  A3-      A2 :|
